!!!OTL: Geistlicher Weckruf
!!!ARE: Europa, Mitteleuropa, Deutschland
!!!SCT: A0396A
!!!YEM: Copyright 1995, estate of Helmut Schaffrath.
**kern
*ICvox
*Ivox
!! Mixed meters:  4/2; 6/2
*M6/2
*k[f#]
*G:
{2g
=1
2g
2g
2a
2b
=2
1cc
1cc}
=3
{1cc
=4
2b
2cc
2dd
2dd
=5
1cc
2r}
{2cc
=6
2b
2b
2cc
2cc
=7
2dd
1dd}
{2cc
=8
2b
2g
2b
2a
=9
1g}
{1g
=10
2a
2a
2dd
2dd
=11
2b
2cc
2b}
{2a
=12
1g
2g
2g
4g
4fn
2e
=13
*M4/2
1d
2r}
{2d
=14
*M6/2
2a
2a
2a
2.a
4b
2cc
=15
*M4/2
1dd
1dd}
=16
{1cc
=17
*M6/2
1b
1a
1g
=18
*M4/2
1b
1a
=19
1.g}
==
!!!AGN: Romanze, Ballade, Lied, religioeses Lied
!! Dresdner Gsgb 1593 No. 190
!!!ONB: ESAC (Essen Associative Code) Database: ALTDEU
!!!AMT: irregular
!!!AIN: vox
!!!EED: Helmut Schaffrath
!!!EEV: 1.0
*-
